!!!!SEGMENT: pl-wtm--r-1514_stefani-jozef--kochany-ojcze-zacna-mamo.krn
!!!cenid: 18xx:2236
!!!COM: Stefani, Józef
!!!COM-rismid: pe30024097
!!!CDT: 1800/04/16-1876/03/19
!!!CNT: Polish
!!!OTL: Kochany ojcze, zacna mamo
!!!PDT:
!!!AGN:
!!!SMS-siglum: PL-Wtm
!!!SMS-shelfmark: R 1514
!!!SMS-shelfwork: W
!!!SMS-variant:
!!!SMS-altvar:
!!!NIFC-rismid: 1001120389
!!!URL-scan: http://repozytorium.nifc.pl/skany/pl-wtm-nut--r1514
!!!ONB-nifc:
**kern	**kern	**dynam	**kern	**text
*part2	*part2	*part2	*part1	*part1
*staff3	*staff2	*	*staff1	*staff1
*I"Piano	*I"Piano	*	*I"Voce	*
*clefF4	*clefG2	*	*clefG2	*
*k[f#]	*k[f#]	*	*k[f#]	*
*M4/4	*M4/4	*	*M4/4	*
*met(c)	*met(c)	*	*met(c)	*
*2\right	*2\right	*	*2\right	*
!	!	!LO:DY:b:rj	!	!
16E 16EE/	16cc#X 16g/	f	16r	.
=1	=1	=1	=1	=1
!	!LO:SIC:v:n=1:s=4cc#	!	!	!
4E 4EE/	4cc 4g/	.	2r	.
8.r	8.r	.	.	.
!	!LO:TX:t=P:problem:all\right:global	!	!	!
16E-X 16EE-X/	16gg 16cc#X 16g\	.	.	.
!	!	!	!LO:TX:a:i:t=Reit.	!
4E- 4EE-/	4gg 4cc# 4g\	.	4r	.
4r	4r	.	8r	.
!	!	!	!LO:TX:t=P:problem:all\right:global	!
.	.	.	8cc#X\	Ko-
=2	=2	=2	=2	=2
1r	1r	.	4.cc#X\	-cha-
.	.	.	8g/	-ny
.	.	.	8g/	Oj-
.	.	.	8g/	-cze
.	.	.	8f#/	za-
.	.	.	8g/	-cna
=3	=3	=3	=3	=3
4r	4r	.	4b-X/	Ma-
8.r	8.r	.	8a/	-mo!
.	.	.	8r	.
16D 16DD/	16dd 16a 16f#\	.	.	.
4D 4DD/	4dd 4a 4f#\	.	2r	.
8.r	8.r	.	.	.
16D 16DD/	16ff# 16dd 16a\	.	.	.
=4	=4	=4	=4	=4
4D 4DD/	4ff# 4dd 4a\	.	2r	.
!LO:TX:t=P:problem:fermata na dwóch pauzach	!LO:TX:t=P:problem:fermata na dwóch pauzach	!	!	!
4r;>	4r;>	.	.	.
8r	8r	.	8r;>	.
!!LO:LB:g=original
8r	8r	.	8d/	Za
4r	4r	.	8d/	wa-
.	.	.	8g/	-sze
=5||	=5||	=5||	=5||	=5||
*M4/4	*M4/4	*	*M4/4	*
*met(c)	*met(c)	*	*met(c)	*
!	!	!LO:DY:b:rj	!LO:TX:a:i:t=Andantino	!
4G\ 4GG\	8r	p	2b\	dla
.	(<8d/L	.	.	.
4r	8b 8g/	.	.	.
.	8d/J)	.	.	.
4A 4AA\	8r	.	4.cc\	mnie
.	(<8d/L	.	.	.
4r	8cc 8f#/	.	.	.
.	8d/J)	.	8f#/	sta-
=6	=6	=6	=6	=6
4B 4BB\	8r	.	4a/	-ra-
.	(<8d/L	.	.	.
4r	8g/	.	4g/	-nie
.	[<8d/J)	.	.	.
8B 8BB\	8g 8d/]	.	8r	.
8B\L	8gL 8d/	.	(<16g/LL	Przyjm-
.	.	.	32a/L	.
.	.	.	32g/JJJ)	.
8c\	8f# 8d/	.	8f#/	-cie
8B\J	8gJ 8d/	.	8g/	choć
=7	=7	=7	=7	=7
*^	*	*	*	*
!	!LO:N:vis=2	!	!	!	!
2F#/	8F#\L	4a 4d/	.	[>4a/	to
.	8A\	.	.	.	.
.	8d\	8.aaL 8.a\	.	8.a/]	.
.	8A\J	.	.	.	.
.	.	16eeeJk 16ee\	.	16ee\	po-
*rep	*rep	*	*	*	*
!	!LO:N:vis=2	!	!	!	!
2F#/	8F#\L	4ddd 4dd\	.	4dd\	-win-
.	8A\	.	.	.	.
!	!	!	!	!LO:TX:a:t=P:problem:wykreślony następny takt	!
.	8d\	4ccc 4cc\	.	4cc\	-szo-
.	8A\J	.	.	.	.
*Xrep	*Xrep	*	*	*	*
!!LO:LB:g=original
=8	=8	=8	=8	=8	=8
!	!LO:N:vis=2	!	!	!	!
2G/	(>8G\L	4.aa#X 4.a#X\	.	(<4.a#X/	-wa-
.	8B\	.	.	.	.
.	8d\	.	.	.	.
.	8g\J)	8bb 8b\	.	8b/)	.
4G/	4G\	4bb 4b\	.	4b/	-nie,
4r	4ryy	4r	.	8r	.
.	.	.	.	8b/	Z dniem
*v	*v	*	*	*	*
=9	=9	=9	=9	=9
4D#X 4DD#X/	8r	.	4.b/	pierw-
*	*tremolo	*	*	*
.	8aL 8f# 8B/	.	.	.
4r	8a 8f# 8B/	.	.	.
.	8aJ 8f# 8B/	.	8f#/	-szym
4D# 4DD#/	8r	.	8f#/L	ro-
.	8aL 8f# 8B/	.	16g/L	.
.	.	.	16a/JJ	.
4r	8a 8f# 8B/	.	8g/	-ku
.	8aJ 8f# 8B/	.	8f#/	no-
=10	=10	=10	=10	=10
4E 4EE/	8r	.	(>4.g/	-we-
.	8gL 8e 8B/	.	.	.
4r	8g 8e 8B/	.	.	.
.	8gJ 8e 8B/	.	8d#X/)	.
4E 4EE/	8r	.	4e/	-go
.	8gL 8e 8B/	.	.	.
4r	8g 8e 8B/	.	4g/	Ja
.	8gJ 8e 8B/	.	.	.
=11	=11	=11	=11	=11
4F# 4FF#/	8r	.	4a/	ży-
.	8aL 8d 8c/	.	.	.
4r	8a 8d 8c/	.	8.a/	-czę
.	8aJ 8d 8c/	.	.	.
.	.	.	16a/	wszy-
4F# 4FF#/	8r	.	8a/L	-stkie-
.	8aL 8d 8c/	.	16b/L	.
.	.	.	16cc/JJ	.
4r	8a 8d 8c/	.	8b/	-go
.	8aJ 8d 8c/	.	8a/	do-
*	*Xtremolo	*	*	*
=12	=12	=12	=12	=12
4G 4GG/	8r	.	(>4.a#X/	-bre-
.	8gL 8e 8c#X 8A#X/	.	.	.
4r	8g 8e 8c# 8A#/	.	.	.
.	8gJ 8d 8B/	.	8b/)	.
8G 8GG/	8g 8d 8B/	.	8b/	-go,
8r	8g/L	.	8g/	By
.	8qb/	.	8qb/	.
4r	8a/	.	8a#/	was
.	8g/J	.	8g/	Bóg
!!LO:LB:g=original
=13	=13	=13	=13	=13
*^	*	*	*	*
!	!LO:N:vis=2	!	!	!	!
2E/	8E\L	4.cc/	.	4.cc\	Ko-
.	8G\	.	.	.	.
.	8c\	.	.	.	.
.	8G\J	8g/	.	8g/	-chał,
!	!LO:N:vis=2	!	!	!	!
2BB/	8BB\L	4.dd\	.	4.dd\	bło-
.	8D\	.	.	.	.
.	8G\	.	.	.	.
.	8D\J	8g/	.	8g/	-go-
=14	=14	=14	=14	=14	=14
!	!LO:N:vis=2	!	!	!	!
2C/	8C\L	4ee 4g/	.	4ee\	-sła-
.	8E\	.	.	.	.
.	8G\	8cc 8e/	.	8cc\	-wił,
.	8c\J	8r	.	8r	.
!	!	!LO:N:vis=8	!	!	!
4A\	2ryy	4ccL 4a 4e/	.	8cc\	Od
.	.	.	.	8cc\	wszel-
8B\L	.	8b 8g#X 8e/	.	8b\	-kie-
8c\J	.	8aJ 8e/	.	8a\	-go
*v	*v	*	*	*	*
=15	=15	=15	=15	=15
4B\	4g 4e/	.	4g/	złe-
4r	4g 4e/	.	8g/	-go
.	.	.	8g/	wy-
4B 4BB\	4f# 4e/	.	(>4f#/	-ba-
4B 4BB\	4b 4f# 4d#X/	.	4b/)	.
=16	=16	=16	=16	=16
8E|>\L	8e'</L	.	4e/	-wił,
(>8A#X\	(<8a#X/	.	.	.
8B\	8b/	.	4r	.
8G\J)	8g/J)	.	.	.
8E\	8e/	.	8r	.
(<8D/L	(<8anL 8f#/	.	(<8a/	w każ-
8C#X/	8b 8g/	.	8b/L)	-dej
8Cn/J	8ccJ 8a/)	.	8cc/J	.
=17	=17	=17	=17	=17
2BB/)	4dd 4b 4g\	.	4dd\	do-
.	4dd 4b 4g\	.	4dd\	-bie
4D/	4a 4f#/	.	4a/	w ka-
!LO:TX:a:t=P:problem:brak zakończenia łuku	!	!	!	!
(<8C#X/L	8bL 8g/	.	8b\	-zdej
8Cn/J	8ccJ 8a/	.	8cc\	go-
!!LO:PB:g=original
=18	=18	=18	=18	=18
*	*	*	*	*^
2BB/)	4ee 4g/	.	4ee\	-dzi-	.
.	4dd 4g/	.	4dd\	-nie	.
4C/	4r	.	4r	.	.
4AA/	8eeL 8cc\	.	8ee\	Niech	.
.	8cc\J	.	8cc\	po-	[[was
=19	=19	=19	=19	=19	=19
4D 4DD/	4b 4g 4d/	.	4.b\	-myśl-	po-
4r	4b 4g 4d/	.	.	.	.
.	.	.	8b\	-ność	-myśl-
4D 4DD/	4r	.	4a/	was	-ność]]
4r	4a 4f# 4d/	.	(<8a/L	nie	.
.	.	.	8dd/J)	.	.
*	*	*	*	*v	*v
=20	=20	=20	=20	=20
!	!	!LO:DY:b:rj	!	!
8GL 8GG/	8r	f	4dd\	mi-
8G/	8gL 8d 8B/	.	.	.
8D/	8b 8g 8d/	.	4g/	-nie.
8BB/J	8ddJ 8b 8g/	.	.	.
4GG/	4gg 4dd 4b\	.	4r	.
4r	4r	.	8g/	O-
.	.	.	8g/	-to
=21	=21	=21	=21	=21
!	!	!LO:DY:b:rj	!	!
(>8C\L	4.g 4.e-X/	p	4.g/	cór-
8E-X\	.	.	.	.
8G\	.	.	.	.
8E-\J	8g 8e-/	.	8g/	-ka
8c\L	8gL 8e-/	.	8g/	Naj-
8G\	8g 8e-/	.	8g/	-wyż-
8E-\	8g 8e-/	.	8g/	-sze-
8C\J)	8ccJ 8g 8e-/	.	8cc\	-go
=22	=22	=22	=22	=22
8G\L	2b 2g 2d/	.	2b\	pro-
8D\	.	.	.	.
8BBn\	.	.	.	.
8D\J	.	.	.	.
4GG/	4b 4g 4d/	.	8b\	-si
.	.	.	8r	.
4r	4r	.	4g/	I
!!LO:LB:g=original
=23	=23	=23	=23	=23
(>8C\L	4.g 4.e-X/	.	4g/	za
8E-X\	.	.	.	.
8G\	.	.	8g/	was
8E-\J	8g 8e-/	.	8g/	do
8c\L	8gL 8e-/	.	8g/	nie-
8G\	8g 8e-/	.	8g/	-go
8E-X\	8g 8e-/	.	8g/	proś-
8C\J)	8ccJ 8g 8e-/	.	8cc\	-by
=24	=24	=24	=24	=24
(>8G\L	2b 2g 2d/	.	4b\	wzno-
8D\	.	.	.	.
8BB\	.	.	8b\	-si.
8GG\J	.	.	8r	.
*	*tremolo	*	*	*
8E-X\L	16aLL 16f#/	.	4a/	Bo-
.	16a 16f#/	.	.	.
8D\	16a 16f#/	.	.	.
.	16aJJ 16f#/	.	.	.
8C#X\	16bLL 16g/	.	(<8b/L	-że
.	16b 16g/	.	.	.
8Cn\J)	16cc 16a/	.	8cc/J)	.
.	16ccJJ 16a/	.	.	.
=25	=25	=25	=25	=25
2BB/	16ddLL 16g/	.	2dd\	daj
.	16dd 16g/	.	.	.
.	16dd 16g/	.	.	.
.	16ddJJ 16g/	.	.	.
.	16ddLL 16g/	.	.	.
!	!	!LO:HP:b	!	!
.	16dd 16g/	<	.	.
.	16dd 16g/	.	.	.
.	16ddJJ 16g/	.	.	.
4C/	16eeLL 16g/	.	4ee\	Spo-
.	16ee 16g/	.	.	.
.	16ee 16g/	.	.	.
.	16eeJJ 16g/	.	.	.
8D/L	16ddLL 16f#/	.	(>8dd\L	-kój
.	16dd 16f#/	.	.	.
8D#X/J	16cc 16a/	.	8cc\J)	.
.	16ccJJ 16a/	[	.	.
=26	=26	=26	=26	=26
!	!	!LO:HP:b	!	!
2E\	16bLL 16g/	>	2b\	raj
.	16b 16g/	.	.	.
.	16b 16g/	.	.	.
.	16b 16g/	.	.	.
.	16b 16g/	.	.	.
.	16b 16g/	]	.	.
.	16b 16g/	.	.	.
.	16bJJ 16g/	.	.	.
8C|</L	16a|<LL 16e/	.	8a\	Ca-
.	16aJ 16e/	.	.	.
!	!LO:TX:a:t=P:problem:łuk	!	!	!
!	!LO:TX:a:t=P:problem:w źródle widoczna druga grupa w tremolo (16a 16e)	!	!	!
(<8C 8CC/	(<16aL 16e/	.	8a\	-łe-
.	16aJ 16e/	.	.	.
8BB 8BBB/	16bL 16g#X 16e/	.	8b\	-mu
.	16bJ 16g# 16e/	.	.	.
8AAJ 8AAA/)	16ccL 16a 16e/	.	8cc\	do-
.	16ccJJ 16a 16e/	.	.	.
*	*Xtremolo	*	*	*
=27	=27	=27	=27	=27
4D 4DD/	4b 4g 4d/)	.	4b\	-mo-
4r	4g 4d 4B/	.	8g/	-wi
.	.	.	8r	.
4D 4DD/	4r	.	4.ee;>\	Wam
4r	4f# 4d 4c 4A/	.	.	.
.	.	.	8dd\	i
!!LO:LB:g=original
=28	=28	=28	=28	=28
*M3/8	*M3/8	*	*M3/8	*
!	!	!LO:DY:b:rj	!LO:TX:a:i:t=Alla mazurek	!
16GLL 16GG\	16gLL 16d 16B/	f	8g/	nam
32r	32r	.	.	.
32B\JJk	32b/JJk	.	.	.
16e\LL	16ee\LL	.	8r	.
16d\	16dd\	.	.	.
16B\	16b\	.	8r	.
16G\JJ	16g\JJ	.	.	.
=29	=29	=29	=29	=29
*	*	*	*Xbrackettup	*
!	!	!LO:DY:b:rj	!LO:TUP:b	!
8D\	8r	p	24f#/LL	la
.	.	.	24a/JJ	.
.	.	.	24cc\	la
8r	8f#L 8d 8c 8A/	.	8ee\	la
8r	8f#J 8d 8c 8A/	.	16.dd\	la
.	.	.	32cc\	la
=30	=30	=30	=30	=30
8G 8GG\	8r	.	16b\	la
.	.	.	32r	.
.	.	.	32aa\	la
8r	8gL 8d 8B/	.	4gg\	la
8r	8gJ 8d 8B/	.	.	.
=31	=31	=31	=31	=31
*	*	*	*Xtuplet	*
8D 8DD/	8r	.	(<24g#X/LL	la
.	.	.	24a/JJ)	.
.	.	.	24cc\	la
8r	8f#L 8d 8c 8A/	.	8ee\	la
8r	8f#J 8d 8c 8A/	.	16.dd\	la
.	.	.	32cc\	la
=32	=32	=32	=32	=32
8G 8GG\	8r	.	16.b/	la
.	.	.	32f#/	la
8r	8gL 8d 8B/	.	4g/	la
8r	8gJ 8d 8B/	.	.	.
=33	=33	=33	=33	=33
8D 8DD/	8r	.	(<24f#/LL	la
.	.	.	24a/JJ)	.
.	.	.	24cc\	la
8r	8f#L 8d 8c 8A/	.	8ee\	la
8r	8f#J 8d 8c 8A/	.	16.dd\	la
.	.	.	32cc\	la
!!LO:LB:g=original
=34	=34	=34	=34	=34
8G 8GG/	8r	.	16b\	la
.	.	.	32r	.
.	.	.	32aa\	la
8r	8gL 8d 8B/	.	4gg\	la
8r	8gJ 8d 8B/	.	.	.
=35	=35	=35	=35	=35
8CL 8CC/	8aL 8e 8c/	.	16ff#\LL	la
.	.	.	32ee\JJk	.
.	.	.	32r	.
8D 8DD/	8f# 8d 8c 8A/	.	16dd\LL	la
.	.	.	32cc\JJk	.
.	.	.	32r	.
8DJ 8DD/	8f#J 8d 8c 8A/	.	16b/LL	la
.	.	.	32a/JJk	.
.	.	.	32r	.
=36	=36	=36	=36	=36
16G 16GG/	16g 16d 16B/	.	16g/	la
16r	16r	.	16r	.
4G 4GG/	4gg 4b 4g\	.	4gg\	la
==	==	==	==	==
*-	*-	*-	*-	*-
!!!system-decoration: s1{(s2,s3)}
!!!RDF**kern: | = vertical stroke
!!!RDF**kern: > = above
!!!RDF**kern: < = below
!!!EED: Antoni Szymański
!!!EST: 2021-06-12
!!!ENC: Andrzej Kubiczek
!!!END: 2021-05-20
